build/images/icons-category/icon-home.svg

<svg width="32" height="32" viewBox="0 0 32 32" fill="none" xmlns="http://www.w3.org/2000/svg">
<path d="M7.56364 11.8519C8.2063 11.8519 8.72727 11.3212 8.72727 10.6667C8.72727 10.0121 8.2063 9.48148 7.56364 9.48148C6.92098 9.48148 6.4 10.0121 6.4 10.6667C6.4 11.3212 6.92098 11.8519 7.56364 11.8519Z" fill="white"/>
<path d="M13.3818 11.8519C14.0245 11.8519 14.5455 11.3212 14.5455 10.6667C14.5455 10.0121 14.0245 9.48148 13.3818 9.48148C12.7392 9.48148 12.2182 10.0121 12.2182 10.6667C12.2182 11.3212 12.7392 11.8519 13.3818 11.8519Z" fill="white"/>
<path d="M30.3418 15.4074H29.0909V10.3704C29.0909 9.55319 28.4387 8.88889 27.6364 8.88889C26.834 8.88889 26.1818 9.55319 26.1818 10.3704V15.4074H24.4364V10.3704C24.4364 9.55319 23.7841 8.88889 22.9818 8.88889C22.1795 8.88889 21.5273 9.55319 21.5273 10.3704V15.4074H20.9455V0H0V21.3333H18.6182V23.5639C18.6182 25.6012 20.2461 27.2593 22.2464 27.2593H23.2727V29.6296H24.3293C24.0884 30.3176 23.4484 30.8148 22.6909 30.8148H19.7818C18.8195 30.8148 18.0364 30.0172 18.0364 29.037V28.4444C18.0364 26.1576 16.2089 24.2963 13.9636 24.2963H13.3818C11.1366 24.2963 9.30909 26.1576 9.30909 28.4444C9.30909 28.7721 9.56916 29.037 9.89091 29.037C10.2127 29.037 10.4727 28.7721 10.4727 28.4444C10.4727 26.8107 11.7777 25.4815 13.3818 25.4815H13.9636C15.5677 25.4815 16.8727 26.8107 16.8727 28.4444V29.037C16.8727 30.6708 18.1777 32 19.7818 32H22.6909C24.0954 32 25.2707 30.9801 25.5412 29.6296H27.3455V27.2593H28.3718C30.3721 27.2593 32 25.6012 32 23.5639V17.0963C32 16.1647 31.2564 15.4074 30.3418 15.4074ZM10.4727 18.963C5.98109 18.963 2.32727 15.2415 2.32727 10.6667C2.32727 6.09185 5.98109 2.37037 10.4727 2.37037C14.9644 2.37037 18.6182 6.09185 18.6182 10.6667C18.6182 15.2415 14.9644 18.963 10.4727 18.963ZM26.1818 28.4444H24.4364V27.2593H26.1818V28.4444ZM30.8364 18.3704H19.7818V17.1159C19.7818 16.8279 20.0122 16.5926 20.2956 16.5926H21.5273V17.7778H24.4364V16.5926H26.1818V17.7778H29.0909V16.5926H30.3418C30.6147 16.5926 30.8364 16.8184 30.8364 17.0963V18.3704Z" fill="white"/>
<path d="M11.0545 3.58578V4.74074C11.0545 5.06844 10.7945 5.33333 10.4727 5.33333C10.151 5.33333 9.89091 5.06844 9.89091 4.74074V3.58578C6.31273 3.88859 3.49091 6.94519 3.49091 10.6667C3.49091 14.3881 6.31273 17.4447 9.89091 17.7476V16.5926C9.89091 16.2649 10.151 16 10.4727 16C10.7945 16 11.0545 16.2649 11.0545 16.5926V17.7476C14.6327 17.4447 17.4545 14.3876 17.4545 10.6667C17.4545 6.94578 14.6327 3.88859 11.0545 3.58578ZM7.56364 13.037C6.28015 13.037 5.23636 11.9739 5.23636 10.6667C5.23636 9.35941 6.28015 8.2963 7.56364 8.2963C8.84713 8.2963 9.89091 9.35941 9.89091 10.6667C9.89091 11.9739 8.84713 13.037 7.56364 13.037ZM13.3818 13.037C12.0983 13.037 11.0545 11.9739 11.0545 10.6667C11.0545 9.35941 12.0983 8.2963 13.3818 8.2963C14.6653 8.2963 15.7091 9.35941 15.7091 10.6667C15.7091 11.9739 14.6653 13.037 13.3818 13.037Z" fill="white"/>
</svg>

<svg width="32" height="32" fill="none" xmlns="http://www.w3.org/2000/svg"><path d="M7.564 11.852c.642 0 1.163-.53 1.163-1.185S8.207 9.48 7.564 9.48 6.4 10.012 6.4 10.667c0 .654.521 1.185 1.164 1.185zm5.818 0c.643 0 1.164-.53 1.164-1.185s-.521-1.186-1.164-1.186c-.643 0-1.164.531-1.164 1.186 0 .654.521 1.185 1.164 1.185z" fill="#fff"/><path d="M30.342 15.407H29.09V10.37c0-.817-.652-1.481-1.455-1.481-.802 0-1.454.664-1.454 1.481v5.037h-1.746V10.37c0-.817-.652-1.481-1.454-1.481-.802 0-1.455.664-1.455 1.481v5.037h-.582V0H0v21.333h18.618v2.23c0 2.038 1.628 3.696 3.628 3.696h1.027v2.37h1.056a1.746 1.746 0 01-1.638 1.186h-2.91c-.961 0-1.745-.798-1.745-1.778v-.593c0-2.286-1.827-4.148-4.072-4.148h-.582c-2.245 0-4.073 1.862-4.073 4.148 0 .328.26.593.582.593a.587.587 0 00.582-.593c0-1.633 1.305-2.962 2.909-2.962h.582c1.604 0 2.909 1.329 2.909 2.962v.593c0 1.634 1.305 2.963 2.909 2.963h2.909c1.404 0 2.58-1.02 2.85-2.37h1.805v-2.37h1.026c2 0 3.628-1.659 3.628-3.696v-6.468c0-.931-.744-1.689-1.658-1.689zm-19.87 3.556c-4.49 0-8.145-3.722-8.145-8.296 0-4.575 3.654-8.297 8.146-8.297 4.491 0 8.145 3.722 8.145 8.297 0 4.575-3.654 8.296-8.145 8.296zm15.71 9.481h-1.746V27.26h1.746v1.185zm4.654-10.074H19.782v-1.254a.52.52 0 01.514-.523h1.231v1.185h2.91v-1.185h1.745v1.185h2.909v-1.185h1.25a.5.5 0 01.495.503v1.274z" fill="#fff"/><path d="M11.055 3.586V4.74c0 .327-.26.592-.582.592a.587.587 0 01-.582-.592V3.586c-3.578.303-6.4 3.36-6.4 7.08 0 3.722 2.822 6.779 6.4 7.082v-1.155c0-.328.26-.593.582-.593.321 0 .582.265.582.593v1.155c3.578-.303 6.4-3.36 6.4-7.081 0-3.721-2.822-6.778-6.4-7.081zm-3.491 9.451c-1.284 0-2.328-1.063-2.328-2.37 0-1.308 1.044-2.37 2.328-2.37 1.283 0 2.327 1.062 2.327 2.37 0 1.307-1.044 2.37-2.327 2.37zm5.818 0c-1.284 0-2.327-1.063-2.327-2.37 0-1.308 1.043-2.37 2.327-2.37 1.283 0 2.327 1.062 2.327 2.37 0 1.307-1.044 2.37-2.327 2.37z" fill="#fff"/></svg>
